X: 20963
Q: "Moderate."
M: C
L: 1/8
K: C
(ef) |\
g3e (gf)(ed) | c2G2 G2(cB) |\
(ge)(d^c) d3e | (fd)(fd) (cB)(AG) |\
(Gc)(eg) g3f |
(f2e2) z2e2 |\
(cB)(AB) (cA)(cA) | (BAGA) B2B2 |\
(e^d)(ea) (g^f)(ed) | {d2}e6 e=f/g/ |\
e2(ge) d2(fd) | {d}c2(ec) (cB)(AG) |
c3e (ec)(ec) | {B2}A4 z2A2 |\
d3e (fd)(fd) | {c2}B6 G2 |\
g2(_bg) e2(ge) | f2(af) d2f2 |\
(e<g)g2 (f<a)Ha2 | {fga}g2g>e c2 |]


